!!!OTL: In dulci jubilo. / (Halblateinisches Weihnachtslied aus dem 14. Jahrh.)
!!!ARE: Europa, Mitteleuropa, Deutschland
!!!SCT: A0528A
!!!TXL: @@GMH, @@LAT
!!!YEM: Copyright 1995, estate of Helmut Schaffrath.
**kern	**text
*M6/2yy	*
*clefC4	*
*k[]	*
*F:ion	*
!LO:TX:a:t=jon. tr.	!
{2F	Jn
=1	=1
1F	dul-
2F	-ci
1A	ju-
!LO:SIC:o:2b:v	!
2B-	-bi-
=2	=2
1.c	-lo
1.c}	.
=3	=3
{1F	sin-
2F	-get
1A	vnd
!LO:SIC:o:2b:v	!
2B-	ſit
=4	=4
1.c	vro,
1.c}	.
=5	=5
{1c	al-
2d	-ler
1c	vn-
!LO:SIC:o:2b:v	!
2B-	-ser
=6	=6
1.A	won-
1F}	-ne
{2F	layt
=7	=7
1G	in
2G	prese-
1A	.
2G	-pi-
=8	=8
1.F	-o,
1.A}	sy
=9	=9
{1c	leuchtet
2d	.
1c	vor
!LO:SIC:o:2b:v	!
2B-	dy
=10	=10
1.A	son-
1F}	-ne
{2F	ma-
=11	=11
1G	-tris
2G	in
1A	gre-
2G	-mi-
=12	=12
1.F}	-o,
{1.G	qui
=13	=13
1D	al-
2C	-pha
1D	est
2E	et
=14	=14
[1.F	o.
1Fyy]}	.
==	==
!!!GTL: Geistliche Volkslieder
!!!AGN: Romanze, Ballade, Lied, religioeses Lied
!! Papier - Codex 15. Jh.
!!!ONB: ESAC (Essen Associative Code) Database: ALTDEU
!!!AMT: compound duple
!!!AIN: vox
!!!EED: Helmut Schaffrath
!!!EEV: 1.0
!!!RDF**kern: l = terminal long
!!!AMD: Ionian
!!!URL-scan: https://rosdok.uni-rostock.de/mcrviewer/recordIdentifier/rosdok_ppn738218359/iview2/phys_0705.iview2?x=-2231.2783251231526&y=-599.6433497448452&scale=0.2314709236031927&rotation=0&layout=singlePageLayout&logicalDiv=log_0007
!!!ENC: Anna Maria Matuszewska
!!!EEV: 2024/20/03
*-	*-
